fs/square_hint_arrow_back_16_regular.svg

<svg viewBox="0 0 16 16" fill="none" xmlns="http://www.w3.org/2000/svg" height="1em" width="1em">
  <path d="M4.5 2C4.77614 2 5 2.22386 5 2.5C5 2.77614 4.77614 3 4.5 3C3.67157 3 3 3.67157 3 4.5C3 4.77614 2.77614 5 2.5 5C2.22386 5 2 4.77614 2 4.5C2 3.11929 3.11929 2 4.5 2ZM9.5 2.5C9.5 2.22386 9.27614 2 9 2H7C6.72386 2 6.5 2.22386 6.5 2.5C6.5 2.77614 6.72386 3 7 3H9C9.27614 3 9.5 2.77614 9.5 2.5ZM11 2.5C11 2.77614 11.2239 3 11.5 3C12.3284 3 13 3.67157 13 4.5C13 4.77614 13.2239 5 13.5 5C13.7761 5 14 4.77614 14 4.5C14 3.11929 12.8807 2 11.5 2C11.2239 2 11 2.22386 11 2.5ZM4.5 13C4.77614 13 5 13.2239 5 13.5C5 13.7761 4.77614 14 4.5 14C3.11929 14 2 12.8807 2 11.5C2 11.2239 2.22386 11 2.5 11C2.77614 11 3 11.2239 3 11.5C3 12.3284 3.67157 13 4.5 13ZM2.5 9.5C2.77614 9.5 3 9.27614 3 9V7C3 6.72386 2.77614 6.5 2.5 6.5C2.22386 6.5 2 6.72386 2 7V9C2 9.27614 2.22386 9.5 2.5 9.5ZM10.5 15C12.9853 15 15 12.9853 15 10.5C15 8.01472 12.9853 6 10.5 6C8.01472 6 6 8.01472 6 10.5C6 12.9853 8.01472 15 10.5 15ZM8.89645 7.89645C9.09171 7.70118 9.40829 7.70118 9.60355 7.89645C9.79882 8.09171 9.79882 8.40829 9.60355 8.60355L8.70711 9.5H10.25C11.7688 9.5 13 10.7312 13 12.25V12.5C13 12.7761 12.7761 13 12.5 13C12.2239 13 12 12.7761 12 12.5V12.25C12 11.2835 11.2165 10.5 10.25 10.5H8.70711L9.60355 11.3964C9.79882 11.5917 9.79882 11.9083 9.60355 12.1036C9.40829 12.2988 9.09171 12.2988 8.89645 12.1036L7.14433 10.3514C7.09744 10.304 7.06198 10.2495 7.03794 10.1914C7.01349 10.1324 7 10.0678 7 10C7 9.93221 7.01349 9.86756 7.03794 9.80861C7.06234 9.74964 7.09851 9.69439 7.14645 9.64645L8.89645 7.89645Z" fill="#212121"/>
</svg>

<svg viewBox="0 0 16 16" fill="none" xmlns="http://www.w3.org/2000/svg" height="1em" width="1em">
  <path d="M4.5 2a.5.5 0 0 1 0 1A1.5 1.5 0 0 0 3 4.5a.5.5 0 0 1-1 0A2.5 2.5 0 0 1 4.5 2Zm5 .5A.5.5 0 0 0 9 2H7a.5.5 0 0 0 0 1h2a.5.5 0 0 0 .5-.5Zm1.5 0a.5.5 0 0 0 .5.5A1.5 1.5 0 0 1 13 4.5a.5.5 0 0 0 1 0A2.5 2.5 0 0 0 11.5 2a.5.5 0 0 0-.5.5ZM4.5 13a.5.5 0 0 1 0 1A2.5 2.5 0 0 1 2 11.5a.5.5 0 0 1 1 0A1.5 1.5 0 0 0 4.5 13Zm-2-3.5A.5.5 0 0 0 3 9V7a.5.5 0 0 0-1 0v2a.5.5 0 0 0 .5.5Zm8 5.5a4.5 4.5 0 1 0 0-9 4.5 4.5 0 0 0 0 9ZM8.896 7.896a.5.5 0 1 1 .708.708l-.897.896h1.543A2.75 2.75 0 0 1 13 12.25v.25a.5.5 0 0 1-1 0v-.25a1.75 1.75 0 0 0-1.75-1.75H8.707l.897.896a.5.5 0 0 1-.708.708L7.144 10.35a.498.498 0 0 1 .002-.705l1.75-1.75Z" fill="#212121"/>
</svg>
